48x48/apps/distributor-logo-fedora.svg

<svg xmlns="http://www.w3.org/2000/svg" width="48" height="48" version="1.1">
 <path fill="#324e89" d="m24 4c-11.041 0-19.992 8.95-20 19.989v16.906c0 1.7193 1.3845 3.1038 3.1038 3.1038h16.907c11.042 0 19.989-8.9569 19.989-20 0-11.046-8.9544-20-20-20z"/>
 <path style="opacity:.2;fill:#f4f4f7" d="m30 9c-4.970563 0-9 4.029437-9 9v5h-5c-4.970563 0-9 4.029437-9 9s4.029437 9 9 9 9-4.029437 9-9v-5h5c4.970563 0 9-4.029437 9-9s-4.029437-9-9-9zm0 4c2.761423 0 5 2.238577 5 5 0 2.761424-2.238577 5-5 5h-3.980469c-0.463095 0-1.019531 0.000701-1.019531-1.097656v-3.902344c0-2.761423 2.238576-5 5-5zm-14 14h3.980469c0.463095 0 1.019531-0.000701 1.019531 1.097656v3.902344c0 2.761423-2.238576 5-5 5-2.761423 0-5-2.238577-5-5 0-2.761424 2.238577-5 5-5z"/>
 <path style="fill:#f4f4f7" d="m30 9c-4.970563 0-9 4.029437-9 9v5h-5a2 2 0 0 0 -0.199219 0.009766c-0.001309 0.000028-0.002597-0.00003-0.003906 0a2 2 0 0 0 -1.796875 1.990234 2 2 0 0 0 2 2h3.980469c0.463095 0 1.019531-0.000701 1.019531 1.097656v3.902344c0 2.761423-2.238576 5-5 5-0.768064 0-1.48647-0.186649-2.136719-0.496094-0.269954-0.129392-0.563339-0.203299-0.863281-0.203125-1.104569 0-2 0.895431-2 2 0.001 0.755755 0.427937 1.446396 1.103516 1.785157 0.000057 0.006206-0.000062 0.011368 0 0.017578 1.180375 0.568763 2.498513 0.896484 3.896484 0.896484 4.970563 0 9-4.029437 9-9v-5h4a2 2 0 0 0 2 -2 2 2 0 0 0 -2 -2h-2.980469c-0.463095 0-1.019531 0.000701-1.019531-1.097656v-3.902344c0-2.761423 2.238576-5 5-5 0.504185 0 0.980571 0.097521 1.439453 0.236328-0.000563-0.00568-0.001436-0.011949-0.001953-0.017578 0.182638 0.05399 0.372051 0.081611 0.5625 0.082031 1.104569 0 2-0.895431 2-2-0.000075-0.186991-0.026365-0.373047-0.078125-0.552734 0.0011-0.03068 0.007813-0.058734 0.007813-0.089844-0.01642-0.02617-0.048127-0.053588-0.066407-0.080078v-0.001953c-0.249236-0.6403003-0.809719-1.1079185-1.484375-1.2382814-0.014105-0.0075129-0.028807-0.0140569-0.042968-0.0214844-0.746103-0.2003274-1.526601-0.3164062-2.335938-0.3164062z"/>
 <path opacity=".2" d="m43.988 24.5c-0.266 10.812-9.104 19.5-19.978 19.5h-16.906c-1.7193 0-3.1035-1.384-3.1035-3.104v1c0 1.72 1.3842 3.104 3.1035 3.104h16.906c11.041 0 19.99-8.957 19.99-20 0-0.168-0.008-0.333-0.012-0.5z"/>
 <path fill="#fff" opacity=".1" d="m24 4c-11.041 0-19.992 8.951-20 19.99v1c0.0076-11.039 8.959-19.99 20-19.99 10.878 0 19.722 8.685 19.988 19.5 0.004-0.167 0.012-0.332 0.012-0.5 0-11.046-8.954-20-20-20z"/>
</svg>

<svg xmlns="http://www.w3.org/2000/svg" width="48" height="48"><path fill="#324e89" d="M24 4C12.959 4 4.008 12.95 4 23.989v16.906a3.097 3.097 0 0 0 3.104 3.104H24.01c11.042 0 19.989-8.957 19.989-20 0-11.046-8.955-20-20-20z"/><path style="opacity:.2;fill:#f4f4f7" d="M30 9a9 9 0 0 0-9 9v5h-5a9 9 0 1 0 9 9v-5h5a9 9 0 1 0 0-18zm0 4a5 5 0 0 1 0 10h-3.98c-.464 0-1.02 0-1.02-1.098V18a5 5 0 0 1 5-5zM16 27h3.98c.464 0 1.02 0 1.02 1.098V32a5 5 0 1 1-5-5z"/><path style="fill:#f4f4f7" d="M30 9a9 9 0 0 0-9 9v5h-5a2 2 0 0 0-.2.01h-.003A2 2 0 0 0 14 25a2 2 0 0 0 2 2h3.98c.464 0 1.02 0 1.02 1.098V32a5 5 0 0 1-5 5 4.95 4.95 0 0 1-2.137-.496A1.996 1.996 0 0 0 13 36.3a2 2 0 0 0-.896 3.785v.018A8.947 8.947 0 0 0 16 41a9 9 0 0 0 9-9v-5h4a2 2 0 0 0 2-2 2 2 0 0 0-2-2h-2.98c-.464 0-1.02 0-1.02-1.098V18a5 5 0 0 1 5-5c.504 0 .98.098 1.44.236l-.003-.017a2 2 0 0 0 2.484-2.47c.002-.032.009-.06.009-.09-.017-.027-.048-.054-.067-.08v-.003a2 2 0 0 0-1.484-1.238l-.043-.022A8.986 8.986 0 0 0 30 9z"/><path opacity=".2" d="M43.988 24.5C43.722 35.312 34.884 44 24.01 44H7.104A3.097 3.097 0 0 1 4 40.896v1A3.097 3.097 0 0 0 7.104 45H24.01C35.051 45 44 36.043 44 25c0-.168-.008-.333-.012-.5z"/><path fill="#fff" opacity=".1" d="M24 4C12.959 4 4.008 12.951 4 23.99v1C4.008 13.951 12.959 5 24 5c10.878 0 19.722 8.685 19.988 19.5.004-.167.012-.332.012-.5 0-11.046-8.954-20-20-20z"/></svg>
